TF1/XpYp.svg

<svg xmlns="http://www.w3.org/2000/svg" viewBox="0 0 1200 800" preserveAspectRatio="none" width="1200" height="800">
 <path d="M0,0H1200V800H0Z" style="fill: white;"></path>
 <g>
  <g transform="translate(120,80)">
   <path d="M0,0H960V640H0Z" style="fill: white; stroke: black; stroke-width: 1;"></path>
   <svg x="0" y="0" overflow="hidden" width="960" height="640" viewBox="0 0 960 640">
    <g>
     <path d="M0,372.16C1.57,372.37,6.5,372.91,9.6,373.47S16.22,374.83,19.2,375.64S25.96,377.64,28.8,378.65S35.72,381.29,38.4,382.47S45.48,385.76,48,387.07S55.23,391,57.6,392.4S64.97,396.94,67.2,398.41S74.69,403.52,76.8,405.04S84.39,410.65,86.4,412.19S94.06,418.22,96,419.78S103.71,426.11,105.6,427.69S113.33,434.2,115.2,435.78S122.92,442.32,124.8,443.9S132.47,450.3,134.4,451.86S141.98,457.93,144,459.47S151.43,465,153.6,466.5S160.82,471.29,163.2,472.69S170.15,476.57,172.8,477.78S179.46,480.6,182.4,481.48S188.8,483.46,192,483.51S198.4,483.61,201.6,483.56S208.36,482.4,211.2,481.38S218.5,478.16,220.8,476.72S228.66,470.95,230.4,469.36S238.71,460.74,240,459.17S248.63,447.54,249.6,446.06S258.45,431.43,259.2,430.07S268.2,412.55,268.8,411.31S277.9,391.16,278.4,390S287.63,367.52,288,366.5S297.39,337.4,297.6,336.61S307.04,294.79,307.2,294.1S316.64,252.93,316.8,252.22S326.22,212.49,326.4,211.75S335.8,174.3,336,173.51S345.35,139.18,345.6,138.33S354.88,107.95,355.2,107S364.36,81.36,364.8,80.26S373.73,60.05,374.4,58.75S382.84,44.53,384,42.99S391.4,34.82,393.6,33.34S400,30.06,403.2,30.01S410.52,31.56,412.8,33.01S421.16,40.62,422.4,42.18S431.27,55.86,432,57.2S441.12,76.43,441.6,77.58S450.84,101.7,451.2,102.71S460.52,130.95,460.8,131.86S470.16,163.41,470.4,164.26S479.78,198.27,480,199.07S489.4,234.69,489.6,235.47S499,271.89,499.2,272.67S508.6,309.13,508.8,309.91S518.19,345.74,518.4,346.54S527.77,381.15,528,381.98S537.35,414.9,537.6,415.76S546.91,446.61,547.2,447.52S556.47,476.03,556.8,477S566.01,503,566.4,504.05S575.53,527.45,576,528.58S585.04,549.39,585.6,550.6S594.36,568.78,595.2,570.19S603.23,581.28,604.8,582.88S612.12,588.36,614.4,589.81S621.39,593.85,624,595.09S630.74,598,633.6,598.98S640.17,601,643.2,601.71S649.67,603.04,652.8,603.51S659.22,604.32,662.4,604.58S668.8,605,672,605.12S678.4,605.27,681.6,605.29S688,605.28,691.2,605.24S697.6,605.14,700.8,605.09S707.2,604.97,710.4,604.93S716.8,604.85,720,604.85S726.4,604.86,729.6,604.91S736,605.04,739.2,605.16S745.61,605.43,748.8,605.63S755.22,606.06,758.4,606.34S764.84,606.94,768,607.3S774.46,608.07,777.6,608.51S784.08,609.46,787.2,609.97S793.71,611.09,796.8,611.67S803.34,612.95,806.4,613.6S812.96,615.03,816,615.73S822.59,617.3,825.6,618.05S832.21,619.73,835.2,620.53S841.83,622.32,844.8,623.14S851.45,625.02,854.4,625.87S861.06,627.81,864,628.67S870.66,630.66,873.6,631.54S880.27,633.54,883.2,634.42S889.86,636.43,892.8,637.31S899.21,639.98,902.4,640.17S908.96,639.15,912,638.44S918.63,636.54,921.6,635.72S928.21,633.89,931.2,633.1S937.79,631.36,940.8,630.6S947.37,628.97,950.4,628.25S958.48,626.42,960,626.08" style="fill: none; stroke: blue; stroke-width: 6;"></path>
    </g>
   </svg>
   <g>
    <g>
     <path d="M0,0h960M10,0v12m19,-12v12m19,-12v12m20,-12v12m19,-12v24m20,-24v12m19,-12v12m19,-12v12m20,-12v12m19,-12v24m20,-24v12m19,-12v12m19,-12v12m20,-12v12m19,-12v24m20,-24v12m19,-12v12m19,-12v12m20,-12v12m19,-12v24m20,-24v12m19,-12v12m19,-12v12m20,-12v12m19,-12v24m20,-24v12m19,-12v12m19,-12v12m20,-12v12m19,-12v24m20,-24v12m19,-12v12m19,-12v12m20,-12v12m19,-12v24m19,-24v12m20,-12v12m19,-12v12m20,-12v12m19,-12v24m19,-24v12m20,-12v12m19,-12v12m20,-12v12m19,-12v24m19,-24v12m20,-12v12m19,-12v12m20,-12v12m19,-12v24" style="stroke: black; stroke-width: 1;"></path>
     <g font-family="Arial" font-size="28" space="preserve" fill="black" text-anchor="middle">
      <text transform="translate(87,-6)">
       1
      </text>
      <text transform="translate(184,-6)">
       2
      </text>
      <text transform="translate(281,-6)">
       3
      </text>
      <text transform="translate(378,-6)">
       4
      </text>
      <text transform="translate(475,-6)">
       5
      </text>
      <text transform="translate(572,-6)">
       6
      </text>
      <text transform="translate(669,-6)">
       7
      </text>
      <text transform="translate(766,-6)">
       8
      </text>
      <text transform="translate(863,-6)">
       9
      </text>
      <text transform="translate(960,-6)">
       10
      </text>
     </g>
    </g>
    <g transform="translate(960)">
     <path d="M0,0v640M0,627h-18m18,-13h-18m18,-14h-18m18,-13h-18m18,-14h-36m36,-13h-18m18,-13h-18m18,-14h-18m18,-13h-18m18,-14h-36m36,-13h-18m18,-14h-18m18,-13h-18m18,-14h-18m18,-13h-36m36,-13h-18m18,-14h-18m18,-13h-18m18,-14h-18m18,-13h-36m36,-14h-18m18,-13h-18m18,-14h-18m18,-13h-18m18,-14h-36m36,-13h-18m18,-13h-18m18,-14h-18m18,-13h-18m18,-14h-36m36,-13h-18m18,-14h-18m18,-13h-18m18,-14h-18m18,-13h-36m36,-13h-18m18,-14h-18m18,-13h-18m18,-14h-18m18,-13h-36m36,-14h-18m18,-13h-18m18,-14h-18m18,-13h-18m18,-14h-36m36,-13h-18m18,-13h-18" style="stroke: black; stroke-width: 1;"></path>
     <g font-family="Arial" font-size="28" space="preserve" fill="black" text-anchor="start">
      <text dy=".4em" transform="translate(4,573)">
       5
      </text>
      <text dy=".4em" transform="translate(4,506)">
       10
      </text>
      <text dy=".4em" transform="translate(4,439)">
       15
      </text>
      <text dy=".4em" transform="translate(4,372)">
       20
      </text>
      <text dy=".4em" transform="translate(4,304)">
       25
      </text>
      <text dy=".4em" transform="translate(4,237)">
       30
      </text>
      <text dy=".4em" transform="translate(4,170)">
       35
      </text>
      <text dy=".4em" transform="translate(4,103)">
       40
      </text>
      <text dy=".4em" transform="translate(4,35)">
       45
      </text>
     </g>
    </g>
   </g>
  </g>
  <g transform="translate(120,4)" font-family="Arial" font-size="40" space="preserve">
   <text fill="black" text-anchor="middle" dy=".8em" transform="translate(480)">
    x*gaus(0)+[3]*form1
   </text>
  </g>
 </g>
</svg>

<svg xmlns="http://www.w3.org/2000/svg" viewBox="0 0 1200 800" preserveAspectRatio="none" width="1200" height="800">
 <path d="M0,0H1200V800H0Z" style="fill: white;"></path>
 <g>
  <g transform="translate(120,80)">
   <path d="M0,0H960V640H0Z" style="fill: white; stroke: black; stroke-width: 1;"></path>
   <svg x="0" y="0" overflow="hidden" width="960" height="640" viewBox="0 0 960 640">
    <g>
     <path d="M0,372.16C1.57,372.37,6.5,372.91,9.6,373.47S16.22,374.83,19.2,375.64S25.96,377.64,28.8,378.65S35.72,381.29,38.4,382.47S45.48,385.76,48,387.07S55.23,391,57.6,392.4S64.97,396.94,67.2,398.41S74.69,403.52,76.8,405.04S84.39,410.65,86.4,412.19S94.06,418.22,96,419.78S103.71,426.11,105.6,427.69S113.33,434.2,115.2,435.78S122.92,442.32,124.8,443.9S132.47,450.3,134.4,451.86S141.98,457.93,144,459.47S151.43,465,153.6,466.5S160.82,471.29,163.2,472.69S170.15,476.57,172.8,477.78S179.46,480.6,182.4,481.48S188.8,483.46,192,483.51S198.4,483.61,201.6,483.56S208.36,482.4,211.2,481.38S218.5,478.16,220.8,476.72S228.66,470.95,230.4,469.36S238.71,460.74,240,459.17S248.63,447.54,249.6,446.06S258.45,431.43,259.2,430.07S268.2,412.55,268.8,411.31S277.9,391.16,278.4,390S287.63,367.52,288,366.5S297.39,337.4,297.6,336.61S307.04,294.79,307.2,294.1S316.64,252.93,316.8,252.22S326.22,212.49,326.4,211.75S335.8,174.3,336,173.51S345.35,139.18,345.6,138.33S354.88,107.95,355.2,107S364.36,81.36,364.8,80.26S373.73,60.05,374.4,58.75S382.84,44.53,384,42.99S391.4,34.82,393.6,33.34S400,30.06,403.2,30.01S410.52,31.56,412.8,33.01S421.16,40.62,422.4,42.18S431.27,55.86,432,57.2S441.12,76.43,441.6,77.58S450.84,101.7,451.2,102.71S460.52,130.95,460.8,131.86S470.16,163.41,470.4,164.26S479.78,198.27,480,199.07S489.4,234.69,489.6,235.47S499,271.89,499.2,272.67S508.6,309.13,508.8,309.91S518.19,345.74,518.4,346.54S527.77,381.15,528,381.98S537.35,414.9,537.6,415.76S546.91,446.61,547.2,447.52S556.47,476.03,556.8,477S566.01,503,566.4,504.05S575.53,527.45,576,528.58S585.04,549.39,585.6,550.6S594.36,568.78,595.2,570.19S603.23,581.28,604.8,582.88S612.12,588.36,614.4,589.81S621.39,593.85,624,595.09S630.74,598,633.6,598.98S640.17,601,643.2,601.71S649.67,603.04,652.8,603.51S659.22,604.32,662.4,604.58S668.8,605,672,605.12S678.4,605.27,681.6,605.29S688,605.28,691.2,605.24S697.6,605.14,700.8,605.09S707.2,604.97,710.4,604.93S716.8,604.85,720,604.85S726.4,604.86,729.6,604.91S736,605.04,739.2,605.16S745.61,605.43,748.8,605.63S755.22,606.06,758.4,606.34S764.84,606.94,768,607.3S774.46,608.07,777.6,608.51S784.08,609.46,787.2,609.97S793.71,611.09,796.8,611.67S803.34,612.95,806.4,613.6S812.96,615.03,816,615.73S822.59,617.3,825.6,618.05S832.21,619.73,835.2,620.53S841.83,622.32,844.8,623.14S851.45,625.02,854.4,625.87S861.06,627.81,864,628.67S870.66,630.66,873.6,631.54S880.27,633.54,883.2,634.42S889.86,636.43,892.8,637.31S899.21,639.98,902.4,640.17S908.96,639.15,912,638.44S918.63,636.54,921.6,635.72S928.21,633.89,931.2,633.1S937.79,631.36,940.8,630.6S947.37,628.97,950.4,628.25S958.48,626.42,960,626.08" style="fill: none; stroke: blue; stroke-width: 6;"></path>
    </g>
   </svg>
   <g>
    <g>
     <path d="M0,0h960M10,0V12M29,0V12M48,0V12M68,0V12M87,0V24M107,0V12M126,0V12M145,0V12M165,0V12M184,0V24M204,0V12M223,0V12M242,0V12M262,0V12M281,0V24M301,0V12M320,0V12M339,0V12M359,0V12M378,0V24M398,0V12M417,0V12M436,0V12M456,0V12M475,0V24M495,0V12M514,0V12M533,0V12M553,0V12M572,0V24M592,0V12M611,0V12M630,0V12M650,0V12M669,0V24M688,0V12M708,0V12M727,0V12M747,0V12M766,0V24M785,0V12M805,0V12M824,0V12M844,0V12M863,0V24M882,0V12M902,0V12M921,0V12M941,0V12M960,0V24" style="stroke: black; stroke-width: 1;"></path>
     <g font-family="Arial" font-size="28" space="preserve" fill="black" text-anchor="middle">
      <text transform="translate(87,-6)">
       1
      </text>
      <text transform="translate(184,-6)">
       2
      </text>
      <text transform="translate(281,-6)">
       3
      </text>
      <text transform="translate(378,-6)">
       4
      </text>
      <text transform="translate(475,-6)">
       5
      </text>
      <text transform="translate(572,-6)">
       6
      </text>
      <text transform="translate(669,-6)">
       7
      </text>
      <text transform="translate(766,-6)">
       8
      </text>
      <text transform="translate(863,-6)">
       9
      </text>
      <text transform="translate(960,-6)">
       10
      </text>
     </g>
    </g>
    <g transform="translate(960)">
     <path d="M0,0v640M0,627H-18M0,614H-18M0,600H-18M0,587H-18M0,573H-36M0,560H-18M0,547H-18M0,533H-18M0,520H-18M0,506H-36M0,493H-18M0,479H-18M0,466H-18M0,452H-18M0,439H-36M0,426H-18M0,412H-18M0,399H-18M0,385H-18M0,372H-36M0,358H-18M0,345H-18M0,331H-18M0,318H-18M0,304H-36M0,291H-18M0,278H-18M0,264H-18M0,251H-18M0,237H-36M0,224H-18M0,210H-18M0,197H-18M0,183H-18M0,170H-36M0,157H-18M0,143H-18M0,130H-18M0,116H-18M0,103H-36M0,89H-18M0,76H-18M0,62H-18M0,49H-18M0,35H-36M0,22H-18M0,9H-18" style="stroke: black; stroke-width: 1;"></path>
     <g font-family="Arial" font-size="28" space="preserve" fill="black" text-anchor="start">
      <text dy=".4em" transform="translate(4,573)">
       5
      </text>
      <text dy=".4em" transform="translate(4,506)">
       10
      </text>
      <text dy=".4em" transform="translate(4,439)">
       15
      </text>
      <text dy=".4em" transform="translate(4,372)">
       20
      </text>
      <text dy=".4em" transform="translate(4,304)">
       25
      </text>
      <text dy=".4em" transform="translate(4,237)">
       30
      </text>
      <text dy=".4em" transform="translate(4,170)">
       35
      </text>
      <text dy=".4em" transform="translate(4,103)">
       40
      </text>
      <text dy=".4em" transform="translate(4,35)">
       45
      </text>
     </g>
    </g>
   </g>
  </g>
  <g transform="translate(120,4)" font-family="Arial" font-size="40" space="preserve">
   <text fill="black" text-anchor="middle" dy=".8em" transform="translate(480)">
    x*gaus(0)+[3]*form1
   </text>
  </g>
 </g>
</svg>
